!!!COM: Schubert, Franz
!!!CNT: Deutscher
!!!TXO: Deutsch
!!!OTL: "Am Feierabend"
!!!OPR: Die schoene Muellerin
!!!LYR: Mu2ller, Wilhelm
!!!OPS: Opus 25
!!!ONM: No. 5
!!!ODT: 1823/
!!NB: Vocal melody only encoded.
**kern	**silbe
*clefg2	*
*k[]	*
*M6/8	*
*MM[geschwind]	*
=7	=7
4r	.
8r	.
8r	.
{8e	{Ha2tt
8e	ich
=8	=8
4cc	tau-
8b	-send
8a	Ar-
8g#	-me
8a	zu
=9	=9
4b	ru2h-
8e}	-ren,}
8r	.
{8ee	{ko2nnt'
8dd	ich
=10	=10
8.cc	brau-
16b	-send
8a	die
4a	Ra2-
8ff	-der
=11	=11
4ee	fu2h-
8b}	-ren,}
8r	.
{8b	{ko2nnt'
8b	ich
=12	=12
8b	we-
8b	-hen
8dd#	durch
4ff#	al-
8dd#	-le
=13	=13
4ee	Hai-
8b}	-ne,}
8r	.
{8cc#	{ko2nnt'
8b	ich
=14	=14
4b	dre-
8dd#	hen
4ff#	al-
8dd#	-le
=15	=15
4ee	Stei-
8b}	-ne,}
4r	.
8r	.
=16	=16
{4cc#	{dass
8cc#	die
8dd	scho2-
8cc#	|
8dd	-ne
=17	=17
4ee	Mu2l-
8cc#	-le-
4a}	-rin}
8r	.
=18	=18
{4cc#	{merk-
8cc#	-te
8dd	mei-
8cc#	|
8dd	-nen
=19	=19
4ee	treu-
8cc#	-en
4a}	Sinn,}
8r	.
=20	=20
{4a	{dass
8a	die
4ee	scho2-
8ee	-ne
=21	=21
4dd#	Mu2l-
8ff#	|
8.ff#	|
16ee	-le-
8ddn}	-rin}
=22	=22
{8cc#	{merk-
8dd	|
8cc#	-te
8b	mei-
8ff#	|
8f#	-nen
=23	=23
[4.a	treu-
8a]	|
8cc#	|
8b	-en
=24	=24
4a}	Sinn!}
8r	.
4r	.
8r	.
=26	=26
{4cc	{Ach,
8r	.
4r	.
8cc	wie
=27	=27
4cc	ist
8cc	mein
8cc	Arm
8b	|
8a	so
=28	=28
4g}	schwach!}
8r	.
{8g	{was
8dd	|
8ff	ich
=29	=29
4ee	he-
8cc	-be,
8g	was
8dd	|
8ff	ich
=30	=30
4ee	tra-
8cc}	-ge,}
{4ee	{was
8ee	ich
=31	=31
8gg	schnei-
8ff	|
8ee	-de,
8dd	was
8cc	|
8dd	ich
=32	=32
4ff	schla-
8ee}	-ge,}
{4g#	{je-
8ee	-der
=33	=33
4ee	Knap-
8a	-pe
4ee	thut
8b	mir's
=34	=34
4.cc}	nach,}
{8g#	{je-
8ee	|
8ee	-der
=35	=35
4ee	Knap-
8a	-pe
4ff	thut
8b	mir's
=36	=36
4cc}	nach.}
8r	.
4r	.
8r	.
=37	=37
4r	.
8r	.
8r	.
{8g	{Und
8g	da
=38	=38
4cc	sitz'
8cc	ich
8b	in
8a	|
8b	der
=39	=39
8cc	gro-
8g	|
8e	-ssen
4g	Run-
8g}	-de,}
=41	=41
4r	.
8r	.
8r	.
{8a	{in
8a	der
=42	=42
4dd	stil-
8dd	-len,
8cc#	ku2h-
8b	|
8cc#	-len
=43	=43
8dd	Fei-
8a	|
8f	-er-
4a	-stun-
8a}	-de,}
=45	=45
4r	.
8r	.
8r	.
{8f	{und
8f	der
=46	=46
4f	Mei-
8f	-ster
4f	sagt
8f	zu
=47	=47
4f	al-
8c}	-len:}
8r	.
{8f	{eu-
8a	-er
=48	=48
4cc	Werk
8b-	hat
4g	mir
8a	ge-
=49	=49
4f	-fal-
8c}	-len,}
8r	.
{8f	{eu-
8a	-er
=50	=50
4cc	Werk
8b-	hat
4g	mir
8a	ge-
=51	=51
4f	-fal-
8c}	-len}
8r	.
{8cc	{und
8cc	das
=52	=52
4dd	lie-
8dd	-be
8ee-	Ma2d-
8dd	|
8cc	-chen
=53	=53
[4.dd	sagt
4dd]}	|}
8r	.
=54	=54
{[4.gg	{al-
4gg]	|
8ee	-len
=55	=55
4dd	ei-
8dd	-ne
4ff	gu-
8ee	-te
=56	=56
4dd}	Nacht,}
8r	.
4r	.
8r	.
=57	=57
{[4.gg	{al-
4gg]	|
8ee	-len
=58	=58
4dd	ei-
8dd	-ne
4ff	gu-
8ee	-te
=59	=59
4dd}	Nacht.}
8r	.
4r	.
8r	.
=60	=60
4r	.
8r	.
8r	.
{8e	{Ha2tt'
8e	ich
=61	=61
4cc	tau-
8b	-send
8a	Ar-
8g#	-me
8a	zu
=62	=62
4b	ru2h-
8e}	-ren,}
8r	.
{8ee	{ko2nnt'
8dd	ich
=63	=63
8.cc	brau-
16b	-send
8a	die
4a	Ra2-
8ff	-der
=64	=64
4ee	fu2h-
8b}	-ren,}
8r	.
{8b	{ko2nnt'
8b	ich
=65	=65
8b	we-
8b	-hen
8dd#	durch
4ff#	al-
8dd#	-le
=66	=66
4ee	Hai-
8b}	-ne,}
8r	.
{8cc#	{ko2nnt'
8b	ich
=67	=67
4b	dre-
8dd#	-hen
4ff#	al-
8dd#	-le
=68	=68
4ee	Stei-
8b}	-ne,}
8r	.
{8ee	{dass
8dd	die
=69	=69
8cc	scho2-
8b	|
8a	-ne
4ff	Mu2l-
8ee	-le-
=70	=70
4.dd}	-rin}
{4gg	{merk-
8ff	-te
=71	=71
8ee	mei-
8dd	|
8cc	-nen,
8b	mei-
8cc	|
8dd	-nen
=72	=72
[4.ee	treu-
4ee]	|
8g#	-en
=73	=73
4a}	Sinn,}
8r	.
{4ee	{dass
8dd	die
=74	=74
8cc	scho2-
8b	|
8a	-ne
4ff	Mu2l-
8ee	-le-
=75	=75
4.dd}	-rin}
{4gg	{merk-
8ff	-te
=76	=76
8ee	mei-
8dd	|
8cc	-nen,
8b	mei-
8cc	|
8dd	-nen
=77	=77
[4.ee	treu-
4ee]	|
8g#	-en
=78	=78
4a}	Sinn,}
8r	.
4r	.
8r	.
=79	=79
4r	.
8r	.
{[4.ee	{dass
=80	=80
4ee]	|
8dd	die
4cc	scho2-
8b	-ne
=81	=81
8dd	Mu2l-
8cc	|
8b	-le-
4.a}	-rin}
=83	=83
4r	.
8r	.
{[4.ee	{merk-
=84	=84
8ee]	|
8ff	|
8ee	-te
8dd	mei-
8cc	|
8b	-nen
=85	=85
8dd	treu-
8cc	|
8b	-en
4.a}	Sinn!}
*-	*-
